packages/components/src/components/icon/cashier/ic-cashier-pay-retailers-dark.svg

<svg width="40" height="25" viewBox="0 0 40 25" fill="none" xmlns="http://www.w3.org/2000/svg">
<path d="M12.5242 21.3682H12.2206C12.1616 21.2126 12.1668 21.0427 12.1163 20.8797H11.5564L11.3439 21.3657H11.005C11.2906 20.7427 11.5722 20.129 11.857 19.5077H12.1806C12.2939 20.1229 12.4077 20.7385 12.5242 21.3682ZM11.9739 19.9119C11.9207 19.9693 11.6937 20.5244 11.6795 20.6317H12.0845C12.0472 20.3882 12.0108 20.1517 11.9739 19.9119Z" fill="#0074BB"/>
<path d="M9.95168 20.6267C9.91494 20.88 9.88049 21.1188 9.84479 21.3647H9.52539C9.55608 21.058 9.60764 20.7562 9.64772 20.4528C9.68781 20.1495 9.73248 19.842 9.77423 19.5431C9.78655 19.5331 9.79156 19.5253 9.7972 19.5249C10.0018 19.5159 10.2068 19.5026 10.4097 19.541C10.637 19.584 10.7809 19.7289 10.8253 19.9522C10.8686 20.1689 10.7769 20.4 10.5995 20.5186C10.499 20.5887 10.3794 20.6265 10.2569 20.6267H9.95168ZM9.98633 20.3627C10.1101 20.3758 10.226 20.3835 10.337 20.3309C10.4594 20.2725 10.5178 20.1639 10.5013 20.0245C10.4871 19.9069 10.4068 19.8193 10.2773 19.7976C10.2114 19.7865 10.1421 19.7957 10.0673 19.7957C10.04 19.9875 10.0137 20.1716 9.98633 20.3627Z" fill="#0074BB"/>
<path d="M13.571 21.3657H13.2593C13.2985 21.0824 13.3369 20.8058 13.3774 20.5146L12.9687 19.5294C13.0823 19.5073 13.1839 19.523 13.2893 19.5179L13.567 20.1925C13.6655 20.081 13.7242 19.9597 13.8 19.8505C13.8757 19.7413 13.9461 19.6313 14.0177 19.5225H14.3582C14.3409 19.5543 14.3302 19.5787 14.3164 19.6004C14.1323 19.8745 13.9499 20.1495 13.7618 20.4206C13.7152 20.4896 13.6865 20.569 13.6783 20.6517C13.6495 20.8718 13.62 21.0917 13.5897 21.3116C13.5851 21.3302 13.5788 21.3483 13.571 21.3657Z" fill="#0074BB"/>
<path d="M16.1236 21.3661H15.7768C15.7181 21.2454 15.6574 21.1175 15.5939 20.9903C15.5508 20.8994 15.5029 20.8107 15.4505 20.7248C15.3706 20.5995 15.2852 20.5707 15.1184 20.5995C15.0819 20.8526 15.0449 21.1092 15.0073 21.3694H14.6831C14.7626 20.7519 14.8539 20.1411 14.9393 19.5248C14.981 19.5221 15.0111 19.5175 15.0415 19.5186C15.2294 19.5244 15.4173 19.5215 15.6029 19.5405C15.8196 19.5626 15.9854 19.7037 16.0242 19.8898C16.0791 20.1532 15.9979 20.368 15.7292 20.4843L15.6756 20.5075C15.7317 20.6014 15.7881 20.6876 15.8359 20.7789C15.9194 20.9388 15.9985 21.1012 16.0787 21.2632C16.0937 21.2916 16.1054 21.3231 16.1236 21.3661ZM15.1578 20.3271C15.243 20.3271 15.3163 20.335 15.3875 20.3246C15.4525 20.3151 15.5153 20.2944 15.5733 20.2634C15.6624 20.215 15.7016 20.1323 15.6985 20.0294C15.6964 19.9424 15.6641 19.8733 15.5837 19.8357C15.4706 19.7831 15.352 19.7822 15.2305 19.7998C15.2058 19.976 15.1831 20.1432 15.1578 20.3271Z" fill="#468534"/>
<path d="M27.5699 19.5167C27.8072 19.5236 28.0258 19.4998 28.2431 19.5376C28.7009 19.6186 28.7675 20.0885 28.5698 20.3309C28.5141 20.3991 28.4479 20.4449 28.2878 20.5127C28.3895 20.601 28.4352 20.7215 28.4926 20.8355C28.5646 20.978 28.6361 21.1207 28.7072 21.2636C28.7222 21.2941 28.735 21.3263 28.7531 21.3663H28.4131C28.3997 21.3423 28.382 21.3135 28.3667 21.2828C28.2893 21.1275 28.2129 20.9718 28.135 20.8167C28.1161 20.7796 28.0947 20.7438 28.0709 20.7096C27.993 20.5979 27.8945 20.5651 27.7482 20.6029C27.701 20.8534 27.6855 21.1125 27.6313 21.3676H27.3181C27.3277 21.1551 27.3693 20.953 27.3976 20.7492C27.426 20.5455 27.4538 20.3445 27.4812 20.1422L27.5699 19.5167ZM27.788 20.3278C27.8732 20.3278 27.9427 20.334 28.0106 20.3263C28.1041 20.3156 28.1937 20.2887 28.2611 20.2154C28.3774 20.0889 28.3525 19.8605 28.1525 19.8117C28.0568 19.7883 27.9573 19.785 27.8603 19.8019C27.8356 19.9758 27.8125 20.1461 27.788 20.3278Z" fill="#468534"/>
<path d="M25.7031 19.5222H26.77C26.7571 19.6122 26.7452 19.6955 26.7316 19.7894H25.9926L25.92 20.2858H26.5721C26.5604 20.3835 26.5513 20.4639 26.5396 20.5549C26.3229 20.5758 26.1087 20.5526 25.8814 20.5683C25.8567 20.742 25.8321 20.9148 25.8058 21.0998H26.7348C26.7216 21.1954 26.7101 21.2783 26.698 21.367H25.443C25.5298 20.7508 25.6156 20.1422 25.7031 19.5222Z" fill="#468534"/>
<path d="M16.9813 19.5245H18.0377L17.999 19.7902H17.2584C17.2344 19.9562 17.2116 20.1151 17.1868 20.2867H17.8423C17.8283 20.3833 17.8162 20.4666 17.8026 20.5612H17.1475C17.1225 20.743 17.0991 20.9131 17.0734 21.0992H17.9995C17.9878 21.1958 17.9786 21.2762 17.9688 21.354C17.8853 21.3799 16.8302 21.3831 16.73 21.3599C16.7037 21.2948 16.9479 19.6706 16.9813 19.5245Z" fill="#468534"/>
<path d="M21.2697 20.879H20.7106C20.639 21.0423 20.5685 21.2036 20.4964 21.3683H20.1543C20.4382 20.741 20.7209 20.1279 21.0069 19.5077H21.3156C21.3603 19.5987 21.6682 21.2752 21.6546 21.3673H21.3605C21.3304 21.2059 21.301 21.0471 21.2697 20.879ZM21.1056 19.9099L20.8133 20.6318H21.2271C21.201 20.389 21.1605 20.1479 21.1056 19.9099Z" fill="#468534"/>
<path d="M29.2532 21.2402C29.2694 21.1386 29.2845 21.044 29.3001 20.9463C29.3937 20.992 29.4747 21.0394 29.5615 21.0716C29.6582 21.1085 29.7579 21.1394 29.8657 21.1046C30.0469 21.0461 30.0974 20.8799 29.9677 20.7398C29.9118 20.6793 29.8408 20.6328 29.7776 20.5787C29.6905 20.5044 29.5978 20.4355 29.5193 20.3534C29.321 20.1461 29.3523 19.7647 29.65 19.5933C29.8751 19.4633 30.1076 19.4735 30.3437 19.558C30.3759 19.5695 30.4064 19.585 30.4481 19.6025C30.4335 19.6967 30.4193 19.7877 30.4032 19.8923C30.3671 19.877 30.3406 19.8633 30.3135 19.8547C30.2245 19.8269 30.1366 19.7921 30.0454 19.7766C29.9072 19.7543 29.7774 19.8315 29.7398 19.9403C29.7172 20.005 29.7229 20.0655 29.7675 20.1163C29.8171 20.1693 29.8701 20.2191 29.9262 20.2653C30.0306 20.3553 30.1494 20.4334 30.2435 20.5336C30.4172 20.719 30.4153 21.0098 30.2546 21.2016C30.16 21.3146 30.0335 21.3722 29.8928 21.3895C29.668 21.4167 29.4573 21.3695 29.2532 21.2402Z" fill="#468534"/>
<path d="M18.6253 19.5241H20.0576C20.043 19.6166 20.03 19.7001 20.0158 19.7937H19.4683C19.3933 20.3231 19.3196 20.8427 19.2453 21.3673H18.9165C18.9896 20.8429 19.0616 20.3264 19.1355 19.7964H18.6123C18.5798 19.697 18.6284 19.6177 18.6253 19.5241Z" fill="#468534"/>
<path d="M24.7834 21.1036C24.7788 21.1588 24.7779 21.1932 24.7727 21.227C24.7656 21.2713 24.7552 21.3149 24.7466 21.3571C24.6613 21.3805 23.749 21.3817 23.6436 21.3571C23.7287 20.7496 23.8141 20.1408 23.9005 19.5256H24.2264C24.1876 19.7926 24.149 20.0521 24.1118 20.3118C24.0746 20.5715 24.0385 20.8302 23.9999 21.1051L24.7834 21.1036Z" fill="#468534"/>
<path d="M22.7173 21.3694H22.3994C22.4865 20.75 22.5723 20.1377 22.6583 19.525H22.9666C22.9921 19.6009 22.7512 21.2289 22.7173 21.3694Z" fill="#468534"/>
<path d="M5.90605 6.74516C5.95198 6.74244 5.98955 6.73869 6.0263 6.73869C6.87804 6.73869 7.72978 6.7318 8.58132 6.74098C9.03641 6.74599 9.48859 6.78983 9.92469 6.94035C10.6956 7.2061 11.1303 7.76307 11.3161 8.53549C11.3668 8.75568 11.3871 8.98178 11.3764 9.20749C11.3537 9.81582 11.2004 10.387 10.8672 10.9018C10.6541 11.231 10.3662 11.4863 10.0351 11.6919C9.64098 11.936 9.20906 12.0663 8.75083 12.1182C8.48151 12.1464 8.21076 12.1586 7.94 12.1548C7.60599 12.1533 7.27197 12.1548 6.93795 12.1548H6.81124L6.36699 14.4111C6.291 14.4357 4.5299 14.4434 4.375 14.419C4.88438 11.8658 5.39375 9.31312 5.90605 6.74516ZM7.02375 10.6978H7.14024C7.47426 10.6978 7.80779 10.6972 8.14083 10.696C8.33558 10.699 8.52953 10.6705 8.71513 10.6114C9.07211 10.4922 9.35289 10.2805 9.52095 9.93418C9.66457 9.63816 9.7201 9.3269 9.66374 9.00374C9.60382 8.66033 9.427 8.3927 9.10447 8.23529C8.88423 8.12778 8.64916 8.09125 8.40763 8.08916C8.16609 8.08707 7.92748 8.08916 7.68845 8.08916C7.65776 8.08916 7.62728 8.09312 7.58636 8.09605C7.39994 8.95823 7.21414 9.81811 7.02375 10.6978Z" fill="#0074BB"/>
<path d="M17.3511 8.80905C17.0095 10.6889 16.6682 12.5677 16.3271 14.4456H14.723C14.7647 14.2464 14.8042 14.0554 14.8482 13.8454C14.7004 13.9515 14.5729 14.0464 14.4418 14.1366C14.1161 14.3608 13.7616 14.5168 13.3646 14.5506C12.9068 14.5898 12.489 14.4746 12.126 14.1863C11.6976 13.846 11.4626 13.3905 11.3611 12.8628C11.3226 12.6795 11.3031 12.4927 11.3031 12.3054C11.3141 11.6983 11.4319 11.1136 11.712 10.5679C12.139 9.73637 12.8009 9.17605 13.6775 8.86396C14.0742 8.72221 14.485 8.62848 14.9073 8.61073C15.2887 8.59466 15.6716 8.5838 16.0528 8.59654C16.4766 8.61031 16.8945 8.68442 17.3068 8.78442C17.3222 8.79149 17.337 8.79973 17.3511 8.80905ZM15.052 12.6596C15.0781 12.5237 15.1059 12.3849 15.1311 12.2453C15.261 11.5292 15.3902 10.8129 15.5188 10.0965C15.525 10.0612 15.5248 10.0247 15.528 9.98312C15.4881 9.97832 15.4614 9.97268 15.4342 9.97227C15.1774 9.96489 14.9205 9.98589 14.6683 10.0349C14.0894 10.1537 13.6278 10.4478 13.3151 10.9572C13.126 11.2616 13.0056 11.6035 12.9623 11.9593C12.9279 12.2432 12.9377 12.5214 13.0502 12.7872C13.1704 13.0713 13.4051 13.2749 13.7508 13.2653C13.9 13.2624 14.0479 13.2365 14.1892 13.1886C14.5138 13.0778 14.7867 12.8826 15.052 12.6596Z" fill="#0074BB"/>
<path d="M19.9714 16.721H18.1864L19.7048 13.9345C19.0646 12.2138 18.4236 10.4899 17.7819 8.76288H19.5056L20.5922 11.8759L22.1032 8.7635H23.8904C23.8695 8.85744 20.0791 16.5521 19.9714 16.721Z" fill="#0074BB"/>
<path d="M25.801 8.75381L23.9357 14.4177H25.8467L26.4826 12.2004H26.5244C26.5244 12.2004 27.5805 14.4868 29.7643 14.6062C29.7643 14.6062 32.4091 15.0669 34.303 12.9683C36.1969 10.8696 36.6242 5.69964 31.6933 4.07882C31.6933 4.07882 29.5128 3.23293 26.7283 4.2546C25.0265 4.87921 23.5777 6.04451 22.574 7.55406C22.5044 7.65844 22.4332 7.76832 22.3602 7.88369H24.203C24.203 7.88369 25.892 4.82953 30.243 5.30738C30.243 5.30738 32.444 5.222 33.6383 7.73025C34.8326 10.2385 33.1095 13.0706 30.8232 13.1902C30.8232 13.1902 29.3727 13.4119 28.6903 12.2004L30.9426 10.2554C30.9426 10.2554 31.7273 9.69177 31.5062 8.24193C31.2852 6.79208 29.6117 6.48479 29.1339 6.51882C29.1339 6.51882 27.1715 6.24576 26.0797 7.96908L29.2193 7.95196C29.2193 7.95196 29.8334 7.88369 29.9357 8.49787C30.038 9.11204 29.5435 9.40222 29.5435 9.40222L26.5405 11.9282L27.6325 8.77176L25.801 8.75381Z" fill="#8DB73C"/>
<path d="M35.4572 7.84904C35.0606 6.27436 33.926 4.81283 31.6933 4.07882C31.6933 4.07882 29.5128 3.23293 26.7283 4.2546C25.0265 4.87921 23.5777 6.04451 22.574 7.55406C22.5044 7.65844 22.4332 7.76832 22.3602 7.88369H24.203C24.203 7.88369 25.892 4.82953 30.243 5.30738C30.243 5.30738 32.444 5.222 33.6383 7.73025C33.8792 8.23226 34.0114 8.77944 34.0264 9.33604C34.0771 11.2754 32.6832 13.0248 30.9305 13.1825C32.2682 13.1706 35.4662 12.6944 35.5696 8.42376C35.5424 8.23032 35.5049 8.03847 35.4572 7.84904Z" fill="url(#paint0_linear)"/>
<defs>
<linearGradient id="paint0_linear" x1="22.3602" y1="8.46614" x2="35.5696" y2="8.46614" gradientUnits="userSpaceOnUse">
<stop stop-color="#8DB73C"/>
<stop offset="0.08" stop-color="#81AF3B"/>
<stop offset="0.3" stop-color="#669C37"/>
<stop offset="0.53" stop-color="#538F35"/>
<stop offset="0.76" stop-color="#488733"/>
<stop offset="1" stop-color="#448433"/>
</linearGradient>
</defs>
</svg>

<svg width="40" height="25" fill="none" xmlns="http://www.w3.org/2000/svg"><path d="M12.524 21.368h-.303c-.06-.155-.054-.325-.105-.488h-.56l-.212.486h-.339l.852-1.858h.324l.343 1.86zm-.55-1.456c-.053.057-.28.612-.294.72h.405l-.111-.72zM9.952 20.627l-.107.738h-.32c.031-.307.083-.609.123-.912.04-.303.084-.611.126-.91.013-.01.018-.018.023-.018.205-.01.41-.022.613.016a.492.492 0 01.415.411.559.559 0 01-.225.567.6.6 0 01-.343.108h-.305zm.034-.264c.124.013.24.02.351-.032a.28.28 0 00.164-.306.255.255 0 00-.224-.227c-.066-.011-.135-.002-.21-.002l-.08.567zM13.571 21.366h-.312l.118-.851-.408-.986c.113-.022.215-.006.32-.011l.278.674c.098-.111.157-.232.233-.341.076-.11.146-.22.218-.328h.34c-.017.031-.028.056-.042.077-.184.274-.366.55-.554.82a.501.501 0 00-.084.232l-.088.66a.32.32 0 01-.019.054z" fill="#0074BB"/><path d="M16.124 21.366h-.347l-.183-.376a2.876 2.876 0 00-.143-.265c-.08-.126-.166-.154-.333-.126l-.11.77h-.325c.08-.617.17-1.228.256-1.844.042-.003.072-.008.102-.006.188.005.376.003.562.022.217.022.382.163.421.349.055.263-.026.478-.295.594l-.053.023c.056.094.112.18.16.272.083.16.162.322.243.484.015.029.026.06.045.103zm-.966-1.039c.085 0 .158.008.23-.002a.568.568 0 00.185-.062c.09-.048.129-.13.125-.234-.002-.087-.034-.156-.114-.193a.608.608 0 00-.354-.036l-.072.527zM27.57 19.517c.237.007.456-.017.673.02.458.082.524.552.327.794-.056.068-.122.114-.282.182.102.088.147.208.205.322l.214.429c.015.03.028.062.046.102h-.34c-.013-.024-.031-.052-.046-.083l-.232-.466a.913.913 0 00-.064-.107c-.078-.112-.177-.145-.323-.107-.047.25-.063.51-.117.765h-.313c.01-.213.051-.415.08-.619l.083-.607.089-.625zm.218.81c.085 0 .155.007.223 0a.382.382 0 00.25-.112c.116-.126.091-.355-.108-.403a.714.714 0 00-.293-.01l-.072.526zM25.703 19.522h1.067l-.038.267h-.74l-.072.497h.652c-.012.098-.02.178-.032.269-.217.02-.431-.002-.659.013l-.075.532h.929l-.037.267h-1.255l.26-1.845zM16.981 19.524h1.057l-.039.266h-.74l-.072.497h.655l-.04.274h-.654l-.075.538H18l-.031.255c-.084.026-1.139.03-1.239.006-.026-.065.218-1.69.251-1.835zM21.27 20.879h-.56l-.214.49h-.342c.284-.628.567-1.241.853-1.861h.309c.044.09.352 1.767.339 1.86h-.295l-.09-.489zm-.164-.97l-.293.723h.414a6.124 6.124 0 00-.121-.722zM29.253 21.24l.047-.294c.094.046.175.093.261.126.097.037.197.067.305.033.18-.059.231-.225.102-.365-.056-.06-.127-.107-.19-.161-.087-.075-.18-.143-.259-.226a.493.493 0 01.131-.76c.225-.13.458-.12.694-.035.032.012.062.027.104.044l-.045.29c-.036-.015-.062-.029-.09-.037-.088-.028-.176-.063-.268-.078-.138-.023-.268.054-.305.163-.023.065-.017.125.027.176.05.053.103.103.16.15.104.09.222.167.317.268a.508.508 0 01.01.668.542.542 0 01-.361.188.944.944 0 01-.64-.15zM18.625 19.524h1.433l-.042.27h-.548l-.223 1.573h-.329l.22-1.57h-.524c-.032-.1.016-.18.013-.273zM24.783 21.104c-.004.055-.005.09-.01.123-.007.044-.018.088-.026.13-.086.024-.998.025-1.103 0l.257-1.831h.325l-.114.786-.112.793.783-.001zM22.717 21.37H22.4l.26-1.845h.308c.025.076-.216 1.704-.25 1.844z" fill="#468534"/><path d="M5.906 6.745c.046-.003.084-.006.12-.006.852 0 1.704-.007 2.555.002.455.005.908.049 1.344.2.77.265 1.205.822 1.391 1.594.05.22.071.447.06.672-.022.609-.176 1.18-.509 1.695a2.6 2.6 0 01-.832.79 3.05 3.05 0 01-1.284.426c-.27.028-.54.04-.811.037-.334-.002-.668 0-1.002 0h-.127l-.444 2.256c-.076.025-1.837.032-1.992.008l1.531-7.674zm1.118 3.953h.116c.334 0 .668 0 1-.002.196.003.39-.025.575-.085.357-.119.638-.33.806-.677.144-.296.2-.607.143-.93-.06-.344-.237-.611-.56-.769a1.591 1.591 0 00-.696-.146c-.242-.002-.48 0-.72 0-.03 0-.06.004-.102.007l-.562 2.602zM17.351 8.809l-1.024 5.637h-1.604l.125-.6c-.148.105-.275.2-.406.29-.326.225-.68.38-1.077.415a1.694 1.694 0 01-1.239-.365c-.428-.34-.663-.796-.765-1.323a2.712 2.712 0 01-.058-.558c.011-.607.129-1.191.409-1.737.427-.832 1.089-1.392 1.966-1.704a4.174 4.174 0 011.23-.253c.38-.016.764-.027 1.145-.014.424.013.841.087 1.254.187a.33.33 0 01.044.025zm-2.299 3.85c.026-.135.054-.274.08-.414l.387-2.148c.006-.036.006-.072.009-.114-.04-.005-.067-.01-.094-.01a3.49 3.49 0 00-.766.062c-.579.119-1.04.413-1.353.922-.189.305-.31.646-.353 1.002-.034.284-.024.562.088.828.12.284.355.488.7.478.15-.003.298-.029.44-.076.324-.111.597-.306.862-.53zM19.971 16.721h-1.785l1.519-2.787-1.923-5.171h1.724l1.086 3.113 1.511-3.112h1.787c-.02.093-3.81 7.788-3.919 7.957z" fill="#0074BB"/><path d="M25.801 8.754l-1.865 5.664h1.91l.637-2.218h.041s1.056 2.287 3.24 2.406c0 0 2.645.46 4.539-1.638 1.894-2.098 2.321-7.268-2.61-8.89 0 0-2.18-.845-4.965.177a8.535 8.535 0 00-4.154 3.3c-.07.103-.14.213-.214.329h1.843s1.689-3.054 6.04-2.577c0 0 2.201-.085 3.395 2.423 1.195 2.508-.529 5.34-2.815 5.46 0 0-1.45.222-2.133-.99l2.253-1.945s.784-.563.563-2.013c-.22-1.45-1.894-1.757-2.372-1.723 0 0-1.962-.273-3.054 1.45l3.14-.017s.613-.068.716.546c.102.614-.392.904-.392.904l-3.003 2.526 1.091-3.156-1.831-.018z" fill="#8DB73C"/><path d="M35.457 7.849c-.396-1.575-1.531-3.036-3.764-3.77 0 0-2.18-.846-4.965.176a8.535 8.535 0 00-4.154 3.3c-.07.103-.14.213-.214.329h1.843s1.689-3.054 6.04-2.577c0 0 2.201-.085 3.395 2.423.241.502.373 1.05.388 1.606.051 1.94-1.343 3.689-3.096 3.846 1.338-.011 4.536-.488 4.64-4.758a5.476 5.476 0 00-.113-.575z" fill="url(#paint0_linear)"/><defs><linearGradient id="paint0_linear" x1="22.36" y1="8.466" x2="35.57" y2="8.466" gradientUnits="userSpaceOnUse"><stop stop-color="#8DB73C"/><stop offset=".08" stop-color="#81AF3B"/><stop offset=".3" stop-color="#669C37"/><stop offset=".53" stop-color="#538F35"/><stop offset=".76" stop-color="#488733"/><stop offset="1" stop-color="#448433"/></linearGradient></defs></svg>
